rt 90 setpensize 1
setxy 0 0
color 1
fd 312
color 3
fd 12
color 8
fd 24
color 3
fd 12
setxy 0 1
color 1
fd 308
color 3
fd 12
color 8
fd 34
color 3
fd 10
setxy 0 2
color 1
fd 220
color 8
fd 2
color 10
fd 2
color 10
fd 14
color 12
fd 2
color 10
fd 4
color 15
fd 2
color 1
fd 60
color 3
fd 8
color 8
fd 12
color 1
fd 2
color 3
fd 14
color 8
fd 12
color 3
fd 10
setxy 0 3
color 1
fd 192
color 12
fd 4
color 10
fd 6
color 12
fd 2
color 8
fd 2
color 1
fd 16
color 10
fd 20
color 1
fd 14
color 10
fd 6
color 1
fd 38
color 3
fd 8
color 8
fd 8
color 3
fd 36
color 8
fd 8
color 3
fd 8
setxy 0 4
color 1
fd 180
color 8
fd 2
color 12
fd 6
color 15
fd 2
color 1
fd 18
color 12
fd 2
color 10
fd 4
color 2
fd 16
color 10
fd 4
color 1
fd 8
color 8
fd 2
color 12
fd 4
color 1
fd 28
color 3
fd 8
color 8
fd 6
color 3
fd 16
color 8
fd 14
color 3
fd 14
color 8
fd 8
color 3
fd 6
setxy 0 5
color 1
fd 174
color 15
fd 2
color 10
fd 2
color 12
fd 2
color 1
fd 10
color 10
fd 6
color 2
fd 46
color 10
fd 2
color 1
fd 8
color 12
fd 2
color 1
fd 24
color 3
fd 6
color 8
fd 6
color 3
fd 10
color 8
fd 8
color 3
fd 14
color 8
fd 6
color 3
fd 10
color 1
fd 2
color 8
fd 4
color 3
fd 8
setxy 0 6
color 1
fd 168
color 10
fd 2
color 12
fd 4
color 1
fd 8
color 10
fd 4
color 2
fd 70
color 6
fd 2
color 12
fd 2
color 1
fd 4
color 12
fd 2
color 8
fd 2
color 1
fd 18
color 3
fd 6
color 8
fd 4
color 1
fd 2
color 3
fd 10
color 8
fd 2
color 3
fd 28
color 8
fd 4
color 3
fd 10
color 8
fd 4
color 3
fd 8
setxy 0 7
color 1
fd 164
color 8
fd 2
color 12
fd 2
color 1
fd 8
color 12
fd 2
color 10
fd 2
color 2
fd 10
color 2
fd 72
color 6
fd 4
color 1
fd 6
color 8
fd 2
color 1
fd 12
color 3
fd 6
color 8
fd 6
color 3
fd 8
color 8
fd 4
color 3
fd 34
color 8
fd 2
color 3
fd 10
color 8
fd 4
color 3
fd 6
setxy 0 8
color 1
fd 160
color 10
fd 2
color 1
fd 6
color 10
fd 2
color 2
fd 94
color 6
fd 2
color 12
fd 2
color 1
fd 6
color 12
fd 2
color 1
fd 10
color 3
fd 4
color 8
fd 6
color 3
fd 8
color 8
fd 2
color 3
fd 40
color 8
fd 4
color 3
fd 6
color 8
fd 6
color 3
fd 6
setxy 0 9
color 1
fd 154
color 10
fd 2
color 1
fd 4
color 10
fd 2
color 2
fd 2
color 2
fd 100
color 6
fd 6
color 2
fd 4
color 6
fd 2
color 12
fd 2
color 1
fd 2
color 12
fd 2
color 3
fd 2
color 1
fd 2
color 3
fd 4
color 8
fd 4
color 1
fd 2
color 3
fd 4
color 8
fd 4
color 3
fd 48
color 8
fd 4
color 3
fd 6
color 8
fd 4
color 3
fd 4
setxy 0 10
color 1
fd 150
color 10
fd 2
color 1
fd 4
color 2
fd 2
color 2
fd 10
color 2
fd 92
color 6
fd 8
color 2
fd 4
color 6
fd 2
color 12
fd 2
color 1
fd 2
color 12
fd 2
color 1
fd 2
color 8
fd 6
color 3
fd 6
color 8
fd 2
color 3
fd 52
color 8
fd 4
color 3
fd 4
color 1
fd 2
color 8
fd 4
color 3
fd 4
setxy 0 11
color 1
fd 146
color 12
fd 2
color 1
fd 4
color 10
fd 2
color 2
fd 2
color 2
fd 10
color 2
fd 94
color 6
fd 12
color 2
fd 2
color 12
fd 2
color 1
fd 4
color 12
fd 2
color 8
fd 2
color 3
fd 64
color 8
fd 2
color 3
fd 6
color 8
fd 6
color 3
fd 2
setxy 0 12
color 1
fd 144
color 10
fd 2
color 1
fd 4
color 10
fd 2
color 2
fd 2
color 2
fd 10
color 2
fd 96
color 6
fd 12
color 2
fd 2
color 6
fd 2
color 3
fd 2
color 1
fd 2
color 3
fd 2
color 8
fd 2
color 3
fd 6
color 8
fd 2
color 3
fd 66
color 8
fd 4
color 3
fd 4
setxy 0 13
color 1
fd 140
color 8
fd 2
color 12
fd 2
color 1
fd 2
color 2
fd 2
color 2
fd 6
color 2
fd 94
color 6
fd 14
color 2
fd 4
color 12
fd 2
color 8
fd 4
color 1
fd 2
color 3
fd 2
color 8
fd 2
color 3
fd 60
color 8
fd 2
color 3
fd 6
color 8
fd 4
color 3
fd 4
setxy 0 14
color 1
fd 136
color 15
fd 2
color 1
fd 4
color 12
fd 2
color 2
fd 2
color 2
fd 6
color 2
fd 94
color 6
fd 18
color 2
fd 2
color 6
fd 2
color 1
fd 2
color 3
fd 6
color 8
fd 2
color 3
fd 62
color 8
fd 2
color 3
fd 6
color 8
fd 2
color 3
fd 4
setxy 0 15
color 1
fd 132
color 1
fd 4
color 2
fd 2
color 2
fd 6
color 2
fd 96
color 6
fd 22
color 1
fd 4
color 3
fd 66
color 8
fd 2
color 3
fd 6
color 8
fd 2
setxy 0 16
color 1
fd 130
color 12
fd 2
color 1
fd 2
color 2
fd 2
color 2
fd 2
color 2
fd 96
color 6
fd 24
color 1
fd 4
color 8
fd 2
color 3
fd 62
color 8
fd 2
color 3
fd 6
color 8
fd 4
setxy 0 17
color 1
fd 68
color 15
fd 2
color 1
fd 58
color 1
fd 4
color 2
fd 4
color 2
fd 94
color 6
fd 26
color 1
fd 2
color 3
fd 66
color 8
fd 2
color 3
fd 4
color 8
fd 4
setxy 0 18
color 1
fd 68
color 15
fd 2
color 1
fd 52
color 1
fd 4
color 2
fd 96
color 6
fd 26
color 1
fd 2
color 3
fd 64
color 8
fd 2
color 3
fd 4
color 8
fd 4
setxy 0 19
color 1
fd 68
color 15
fd 2
color 1
fd 50
color 10
fd 2
color 12
fd 2
color 1
fd 2
color 10
fd 2
color 2
fd 94
color 6
fd 28
color 3
fd 66
color 8
fd 2
color 3
fd 2
color 8
fd 4
setxy 0 20
color 1
fd 68
color 15
fd 2
color 1
fd 54
color 2
fd 96
color 6
fd 28
color 1
fd 2
color 3
fd 64
color 8
fd 2
color 3
fd 2
color 1
fd 2
color 8
fd 2
setxy 0 21
color 1
fd 68
color 1
fd 44
color 10
fd 2
color 1
fd 2
color 2
fd 98
color 6
fd 26
color 1
fd 2
color 3
fd 64
color 8
fd 2
color 3
fd 2
setxy 0 22
color 1
fd 68
color 8
fd 2
color 1
fd 44
color 15
fd 2
color 12
fd 2
color 1
fd 2
color 10
fd 2
color 2
fd 98
color 6
fd 26
color 1
fd 2
color 3
fd 62
color 8
fd 2
color 3
fd 2
color 1
fd 2
setxy 0 23
color 1
fd 68
color 15
fd 2
color 1
fd 42
color 10
fd 2
color 1
fd 2
color 10
fd 2
color 2
fd 100
color 6
fd 26
color 1
fd 2
color 3
fd 60
color 8
fd 2
color 3
fd 4
setxy 0 24
color 1
fd 68
color 15
fd 2
color 1
fd 40
color 15
fd 2
color 1
fd 2
color 2
fd 100
color 6
fd 28
color 3
fd 2
color 1
fd 2
color 3
fd 14
color 5
fd 8
color 3
fd 42
setxy 0 25
color 1
fd 68
color 15
fd 2
color 1
fd 36
color 15
fd 2
color 1
fd 2
color 15
fd 2
color 1
fd 2
color 2
fd 100
color 6
fd 28
color 1
fd 2
color 3
fd 12
color 5
fd 14
color 3
fd 38
setxy 0 26
color 1
fd 68
color 15
fd 2
color 1
fd 32
color 15
fd 4
color 1
fd 2
color 12
fd 2
color 1
fd 2
color 2
fd 98
color 6
fd 30
color 1
fd 2
color 3
fd 8
color 5
fd 18
color 3
fd 36
setxy 0 27
color 1
fd 98
color 15
fd 4
color 1
fd 2
color 15
fd 2
color 1
fd 2
color 2
fd 100
color 6
fd 30
color 3
fd 4
color 5
fd 24
color 3
fd 34
setxy 0 28
color 1
fd 96
color 15
fd 6
color 1
fd 2
color 2
fd 100
color 6
fd 30
color 3
fd 2
color 5
fd 28
color 3
fd 32
setxy 0 29
color 1
fd 94
color 15
fd 6
color 15
fd 2
color 1
fd 2
color 2
fd 100
color 6
fd 32
color 1
fd 2
color 5
fd 28
color 3
fd 28
color 8
fd 2
color 3
fd 2
setxy 0 30
color 1
fd 92
color 15
fd 8
color 1
fd 2
color 2
fd 102
color 6
fd 30
color 3
fd 2
color 5
fd 30
color 3
fd 26
color 8
fd 2
color 3
fd 2
setxy 0 31
color 1
fd 90
color 15
fd 8
color 1
fd 2
color 2
fd 102
color 6
fd 30
color 1
fd 2
color 5
fd 28
color 3
fd 26
color 8
fd 2
color 3
fd 2
setxy 0 32
color 1
fd 88
color 15
fd 10
color 1
fd 2
color 2
fd 38
color 2
fd 54
color 6
fd 30
color 14
fd 2
color 5
fd 30
setxy 0 33
color 1
fd 88
color 15
fd 6
color 1
fd 2
color 2
fd 18
color 2
fd 44
color 6
fd 30
color 14
fd 2
color 5
fd 28
color 3
fd 26
color 8
fd 2
setxy 0 34
color 1
fd 86
color 15
fd 4
color 15
fd 2
color 1
fd 2
color 2
fd 8
color 2
fd 46
color 6
fd 32
color 5
fd 30
color 3
fd 26
color 8
fd 2
setxy 0 35
color 1
fd 86
color 15
fd 4
color 15
fd 2
color 1
fd 2
color 2
fd 50
color 6
fd 30
color 14
fd 2
color 5
fd 26
color 3
fd 26
color 8
fd 2
setxy 0 36
color 1
fd 86
color 15
fd 2
color 10
fd 2
color 1
fd 2
color 2
fd 52
color 6
fd 30
color 14
fd 2
color 5
fd 26
color 3
fd 26
color 8
fd 2
setxy 0 37
color 1
fd 84
color 15
fd 6
color 1
fd 2
color 9
fd 2
color 2
fd 48
color 6
fd 32
color 5
fd 30
setxy 0 38
color 1
fd 84
color 15
fd 6
color 1
fd 2
color 9
fd 2
color 2
fd 46
color 6
fd 32
color 14
fd 2
color 5
fd 26
setxy 0 39
color 1
fd 82
color 15
fd 2
color 1
fd 2
color 9
fd 4
color 9
fd 2
color 11
fd 4
color 11
fd 4
color 2
fd 46
color 6
fd 32
color 5
fd 28
setxy 0 40
color 1
fd 80
color 15
fd 4
color 1
fd 2
color 9
fd 8
color 9
fd 2
color 11
fd 2
color 4
fd 8
color 9
fd 2
color 9
fd 2
color 4
fd 6
color 11
fd 2
color 9
fd 2
color 2
fd 42
color 6
fd 32
color 5
fd 26
setxy 0 41
color 1
fd 80
color 15
fd 4
color 1
fd 2
color 9
fd 6
color 9
fd 4
color 11
fd 2
color 4
fd 14
color 11
fd 2
color 11
fd 2
color 4
fd 14
color 11
fd 2
color 2
fd 36
color 6
fd 32
color 14
fd 2
color 5
fd 24
setxy 0 42
color 1
fd 78
color 15
fd 2
color 1
fd 2
color 10
fd 2
color 1
fd 2
color 9
fd 6
color 11
fd 2
color 4
fd 22
color 9
fd 2
color 4
fd 20
color 11
fd 2
color 9
fd 2
color 2
fd 32
color 6
fd 34
color 5
fd 28
setxy 0 43
color 1
fd 78
color 15
fd 2
color 15
fd 2
color 1
fd 2
color 9
fd 6
color 9
fd 2
color 11
fd 2
color 4
fd 28
color 11
fd 2
color 4
fd 28
color 11
fd 2
color 2
fd 32
color 6
fd 32
color 5
fd 28
setxy 0 44
color 1
fd 80
color 1
fd 2
color 10
fd 2
color 9
fd 6
color 11
fd 2
color 4
fd 32
color 9
fd 2
color 9
fd 2
color 4
fd 32
color 11
fd 2
color 2
fd 30
color 6
fd 34
color 5
fd 26
setxy 0 45
color 1
fd 28
color 7
fd 6
color 1
fd 40
color 1
fd 2
color 2
fd 2
color 9
fd 2
color 4
fd 34
color 9
fd 2
color 4
fd 34
color 2
fd 36
color 6
fd 28
color 5
fd 26
setxy 0 46
color 1
fd 26
color 7
fd 12
color 1
fd 36
color 1
fd 2
color 8
fd 2
color 2
fd 2
color 9
fd 2
color 9
fd 2
color 11
fd 2
color 4
fd 32
color 11
fd 2
color 4
fd 34
color 2
fd 38
color 6
fd 26
color 5
fd 26
setxy 0 47
color 1
fd 24
color 7
fd 14
color 1
fd 34
color 1
fd 2
color 2
fd 2
color 4
fd 34
color 4
fd 34
color 2
fd 40
color 6
fd 24
color 5
fd 26
setxy 0 48
color 1
fd 22
color 14
fd 2
color 7
fd 18
color 1
fd 36
color 2
fd 4
color 9
fd 2
color 11
fd 2
color 4
fd 32
color 11
fd 2
color 11
fd 2
color 4
fd 32
color 11
fd 2
color 2
fd 42
color 6
fd 22
color 5
fd 28
setxy 0 49
color 1
fd 20
color 14
fd 2
color 7
fd 24
color 1
fd 32
color 10
fd 2
color 2
fd 2
color 2
fd 4
color 4
fd 34
color 4
fd 34
color 2
fd 44
color 6
fd 20
color 5
fd 28
setxy 0 50
color 1
fd 18
color 14
fd 2
color 7
fd 28
color 1
fd 26
color 15
fd 2
color 1
fd 2
color 2
fd 6
color 11
fd 2
color 4
fd 32
color 11
fd 2
color 11
fd 2
color 4
fd 32
color 11
fd 2
color 2
fd 48
color 6
fd 16
color 5
fd 28
setxy 0 51
color 1
fd 18
color 7
fd 32
color 1
fd 24
color 10
fd 4
color 2
fd 2
color 2
fd 4
color 4
fd 34
color 4
fd 34
color 2
fd 50
color 6
fd 14
color 5
fd 28
setxy 0 52
color 1
fd 16
color 7
fd 34
color 1
fd 20
color 1
fd 2
color 2
fd 6
color 4
fd 34
color 4
fd 34
color 2
fd 50
color 6
fd 14
color 5
fd 28
setxy 0 53
color 1
fd 14
color 14
fd 2
color 7
fd 36
color 1
fd 18
color 10
fd 2
color 1
fd 2
color 2
fd 10
color 4
fd 34
color 4
fd 32
color 11
fd 2
color 2
fd 50
color 6
fd 14
color 5
fd 28
setxy 0 54
color 1
fd 14
color 7
fd 18
color 1
fd 4
color 7
fd 14
color 14
fd 2
color 1
fd 16
color 12
fd 2
color 1
fd 2
color 2
fd 8
color 4
fd 36
color 11
fd 2
color 4
fd 32
color 2
fd 52
color 6
fd 12
color 5
fd 26
setxy 0 55
color 1
fd 12
color 7
fd 18
color 1
fd 8
color 7
fd 14
color 14
fd 2
color 1
fd 14
color 12
fd 2
color 1
fd 2
color 2
fd 8
color 11
fd 2
color 4
fd 34
color 4
fd 32
color 11
fd 2
color 2
fd 52
color 6
fd 12
color 5
fd 26
setxy 0 56
color 1
fd 12
color 7
fd 18
color 14
fd 2
color 1
fd 12
color 7
fd 12
color 1
fd 14
color 15
fd 2
color 1
fd 2
color 2
fd 8
color 13
fd 2
color 4
fd 34
color 11
fd 2
color 4
fd 32
color 2
fd 54
color 6
fd 12
color 5
fd 26
setxy 0 57
color 1
fd 10
color 7
fd 18
color 1
fd 16
color 14
fd 2
color 7
fd 10
color 1
fd 10
color 8
fd 2
color 1
fd 4
color 2
fd 8
color 13
fd 2
color 11
fd 2
color 4
fd 32
color 9
fd 2
color 4
fd 32
color 11
fd 2
color 2
fd 54
color 6
fd 12
color 5
fd 28
setxy 0 58
color 1
fd 8
color 7
fd 22
color 1
fd 22
color 7
fd 10
color 14
fd 2
color 1
fd 6
color 1
fd 2
color 10
fd 2
color 2
fd 8
color 13
fd 4
color 11
fd 2
color 4
fd 32
color 4
fd 34
color 2
fd 56
color 6
fd 12
color 5
fd 28
setxy 0 59
color 1
fd 6
color 14
fd 2
color 7
fd 20
color 14
fd 2
color 1
fd 24
color 7
fd 8
color 1
fd 6
color 12
fd 2
color 1
fd 2
color 10
fd 2
color 2
fd 8
color 13
fd 6
color 4
fd 32
color 11
fd 2
color 4
fd 34
color 2
fd 58
color 6
fd 12
color 5
fd 26
setxy 0 60
color 1
fd 6
color 7
fd 22
color 1
fd 28
color 7
fd 6
color 1
fd 6
color 12
fd 2
color 1
fd 2
color 10
fd 2
color 2
fd 8
color 13
fd 6
color 11
fd 2
color 4
fd 32
color 13
fd 2
color 4
fd 32
color 11
fd 2
color 2
fd 58
color 6
fd 10
color 2
fd 2
color 6
fd 2
color 5
fd 26
setxy 0 61
color 1
fd 6
color 7
fd 20
color 1
fd 30
color 7
fd 6
color 14
fd 2
color 1
fd 4
color 1
fd 2
color 10
fd 2
color 2
fd 8
color 13
fd 6
color 4
fd 32
color 11
fd 2
color 11
fd 2
color 4
fd 32
color 2
fd 58
color 6
fd 14
color 5
fd 24
setxy 0 62
color 1
fd 6
color 7
fd 20
color 14
fd 2
color 1
fd 30
color 7
fd 4
color 1
fd 4
color 12
fd 2
color 1
fd 2
color 10
fd 2
color 2
fd 10
color 9
fd 4
color 13
fd 6
color 11
fd 2
color 4
fd 32
color 4
fd 32
color 11
fd 2
color 2
fd 58
color 6
fd 12
color 2
fd 2
color 6
fd 2
color 5
fd 24
setxy 0 63
color 1
fd 6
color 7
fd 20
color 1
fd 20
color 14
fd 2
color 7
fd 2
color 1
fd 6
color 14
fd 2
color 7
fd 6
color 14
fd 2
color 1
fd 2
color 8
fd 2
color 1
fd 2
color 8
fd 2
color 2
fd 10
color 9
fd 4
color 13
fd 6
color 4
fd 32
color 11
fd 2
color 11
fd 2
color 4
fd 32
color 2
fd 62
color 6
fd 14
color 5
fd 22
setxy 0 64
color 1
fd 4
color 7
fd 20
color 14
fd 2
color 1
fd 14
color 7
fd 12
color 1
fd 6
color 7
fd 6
color 1
fd 4
color 8
fd 2
color 1
fd 2
color 2
fd 12
color 9
fd 10
color 13
fd 6
color 4
fd 32
color 4
fd 32
color 2
fd 62
color 6
fd 16
color 5
fd 20
setxy 0 65
color 1
fd 4
color 7
fd 20
color 1
fd 14
color 7
fd 14
color 14
fd 2
color 1
fd 4
color 14
fd 2
color 7
fd 6
color 14
fd 2
color 1
fd 2
color 12
fd 2
color 1
fd 2
color 2
fd 12
color 9
fd 12
color 13
fd 4
color 4
fd 34
color 4
fd 32
color 11
fd 2
color 2
fd 62
color 6
fd 16
color 5
fd 20
setxy 0 66
color 1
fd 2
color 14
fd 2
color 7
fd 18
color 1
fd 12
color 14
fd 2
color 7
fd 4
color 14
fd 4
color 1
fd 2
color 7
fd 2
color 1
fd 4
color 14
fd 2
color 7
fd 6
color 1
fd 6
color 2
fd 14
color 9
fd 14
color 13
fd 4
color 4
fd 34
color 4
fd 32
color 2
fd 62
color 6
fd 18
color 5
fd 20
setxy 0 67
color 1
fd 2
color 7
fd 18
color 14
fd 2
color 1
fd 12
color 7
fd 4
color 1
fd 8
color 7
fd 4
color 14
fd 2
color 1
fd 2
color 14
fd 2
color 7
fd 8
color 1
fd 4
color 8
fd 2
color 2
fd 8
color 2
fd 2
color 9
fd 16
color 13
fd 4
color 11
fd 2
color 4
fd 32
color 4
fd 32
color 11
fd 2
color 2
fd 64
color 6
fd 18
color 5
fd 18
setxy 0 68
color 1
fd 2
color 7
fd 20
color 14
fd 2
color 1
fd 12
color 7
fd 4
color 1
fd 10
color 7
fd 6
color 14
fd 2
color 1
fd 2
color 14
fd 2
color 7
fd 8
color 14
fd 2
color 1
fd 2
color 3
fd 2
color 10
fd 2
color 2
fd 10
color 9
fd 18
color 13
fd 2
color 4
fd 32
color 4
fd 32
color 2
fd 66
color 6
fd 16
color 5
fd 18
setxy 0 69
color 1
fd 2
color 7
fd 20
color 1
fd 14
color 7
fd 4
color 1
fd 8
color 7
fd 2
color 14
fd 2
color 1
fd 6
color 14
fd 2
color 7
fd 8
color 14
fd 2
color 1
fd 2
color 12
fd 2
color 3
fd 2
color 2
fd 6
color 9
fd 18
color 13
fd 2
color 11
fd 2
color 4
fd 30
color 11
fd 2
color 11
fd 2
color 4
fd 30
color 11
fd 2
color 2
fd 66
color 6
fd 18
color 5
fd 18
setxy 0 70
color 14
fd 2
color 7
fd 20
color 14
fd 2
color 1
fd 12
color 7
fd 4
color 1
fd 18
color 14
fd 2
color 7
fd 10
color 14
fd 2
color 1
fd 2
color 8
fd 2
color 10
fd 2
color 2
fd 2
color 2
fd 2
color 9
fd 18
color 13
fd 2
color 11
fd 2
color 4
fd 30
color 11
fd 2
color 13
fd 2
color 11
fd 2
color 4
fd 32
color 2
fd 70
color 6
fd 16
color 5
fd 20
setxy 0 71
color 7
fd 22
color 1
fd 12
color 7
fd 4
color 14
fd 2
color 1
fd 14
color 14
fd 2
color 7
fd 12
color 1
fd 4
color 8
fd 2
color 2
fd 4
color 9
fd 18
color 13
fd 4
color 4
fd 32
color 13
fd 6
color 13
fd 2
color 4
fd 34
color 2
fd 70
color 6
fd 16
color 14
fd 2
color 5
fd 18
setxy 0 72
color 7
fd 22
color 1
fd 10
color 7
fd 6
color 14
fd 2
color 1
fd 6
color 14
fd 2
color 7
fd 12
color 1
fd 4
color 12
fd 2
color 1
fd 2
color 2
fd 2
color 2
fd 2
color 9
fd 18
color 13
fd 2
color 11
fd 2
color 4
fd 30
color 11
fd 2
color 13
fd 16
color 4
fd 32
color 11
fd 2
color 2
fd 70
color 6
fd 16
color 5
fd 20
setxy 0 73
color 7
fd 24
color 1
fd 8
color 14
fd 2
color 7
fd 28
color 1
fd 6
color 10
fd 2
color 1
fd 2
color 2
fd 4
color 9
fd 16
color 13
fd 2
color 4
fd 32
color 13
fd 18
color 4
fd 32
color 9
fd 2
color 2
fd 72
color 6
fd 16
color 5
fd 20
setxy 0 74
color 7
fd 28
color 1
fd 8
color 14
fd 2
color 7
fd 24
color 1
fd 6
color 10
fd 2
color 1
fd 2
color 2
fd 4
color 9
fd 16
color 13
fd 2
color 11
fd 2
color 4
fd 30
color 11
fd 2
color 13
fd 14
color 11
fd 2
color 4
fd 30
color 11
fd 2
color 2
fd 76
color 6
fd 14
color 5
fd 20
setxy 0 75
color 7
fd 30
color 1
fd 10
color 7
fd 22
color 1
fd 6
color 1
fd 4
color 2
fd 2
color 9
fd 4
color 4
fd 32
color 13
fd 14
color 4
fd 32
color 9
fd 2
color 2
fd 76
color 6
fd 14
color 5
fd 20
setxy 0 76
color 7
fd 34
color 14
fd 2
color 1
fd 10
color 7
fd 8
color 14
fd 2
color 1
fd 10
color 12
fd 2
color 1
fd 2
color 10
fd 2
color 4
fd 32
color 13
fd 10
color 4
fd 32
color 9
fd 2
color 2
fd 78
color 6
fd 14
color 5
fd 18
setxy 0 77
color 7
fd 36
color 1
fd 14
color 14
fd 2
color 1
fd 16
color 10
fd 2
color 1
fd 2
color 10
fd 2
color 4
fd 32
color 11
fd 2
color 13
fd 6
color 11
fd 2
color 4
fd 30
color 11
fd 2
color 2
fd 78
color 6
fd 14
color 5
fd 18
setxy 0 78
color 14
fd 2
color 7
fd 38
color 1
fd 30
color 10
fd 2
color 1
fd 2
color 4
fd 34
color 13
fd 6
color 4
fd 32
color 9
fd 2
color 2
fd 78
color 6
fd 14
color 5
fd 18
setxy 0 79
color 1
fd 2
color 14
fd 2
color 7
fd 36
color 1
fd 28
color 10
fd 2
color 1
fd 2
color 11
fd 2
color 4
fd 32
color 13
fd 4
color 4
fd 30
color 11
fd 2
color 2
fd 82
color 6
fd 12
color 5
fd 18
setxy 0 80
color 1
fd 4
color 14
fd 2
color 7
fd 38
color 14
fd 2
color 1
fd 24
color 10
fd 2
color 1
fd 2
color 4
fd 32
color 13
fd 4
color 4
fd 32
color 9
fd 2
color 2
fd 82
color 6
fd 12
color 5
fd 18
setxy 0 81
color 1
fd 6
color 7
fd 40
color 14
fd 2
color 1
fd 22
color 10
fd 2
color 1
fd 2
color 10
fd 2
color 11
fd 2
color 4
fd 30
color 4
fd 32
color 2
fd 82
color 6
fd 10
color 2
fd 2
color 5
fd 18
setxy 0 82
color 1
fd 8
color 14
fd 2
color 7
fd 42
color 1
fd 18
color 12
fd 2
color 1
fd 2
color 10
fd 2
color 11
fd 2
color 4
fd 62
color 11
fd 2
color 2
fd 82
color 6
fd 10
color 2
fd 2
color 5
fd 18
setxy 0 83
color 1
fd 10
color 14
fd 2
color 7
fd 42
color 14
fd 2
color 1
fd 14
color 8
fd 2
color 1
fd 4
color 4
fd 62
color 9
fd 2
color 2
fd 84
color 6
fd 10
color 2
fd 2
color 5
fd 20
setxy 0 84
color 1
fd 14
color 7
fd 44
color 14
fd 2
color 1
fd 12
color 12
fd 2
color 1
fd 2
color 2
fd 2
color 11
fd 2
color 4
fd 58
color 11
fd 2
color 2
fd 84
color 6
fd 10
color 2
fd 2
color 5
fd 20
setxy 0 85
color 1
fd 16
color 7
fd 42
color 14
fd 2
color 1
fd 8
color 12
fd 2
color 1
fd 2
color 2
fd 2
color 4
fd 58
color 9
fd 2
color 2
fd 84
color 6
fd 10
color 2
fd 2
color 5
fd 20
setxy 0 86
color 1
fd 18
color 7
fd 46
color 14
fd 2
color 1
fd 6
color 12
fd 2
color 1
fd 2
color 2
fd 4
color 11
fd 2
color 4
fd 54
color 11
fd 2
color 2
fd 84
color 6
fd 12
color 14
fd 2
color 5
fd 18
setxy 0 87
color 1
fd 18
color 14
fd 2
color 7
fd 46
color 14
fd 2
color 1
fd 6
color 2
fd 4
color 4
fd 54
color 9
fd 2
color 2
fd 88
color 6
fd 10
color 14
fd 2
color 5
fd 18
setxy 0 88
color 1
fd 24
color 14
fd 2
color 7
fd 50
color 1
fd 2
color 2
fd 6
color 4
fd 50
color 9
fd 2
color 2
fd 84
color 6
fd 8
color 2
fd 2
color 6
fd 2
color 5
fd 20
setxy 0 89
color 1
fd 28
color 7
fd 48
color 6
fd 2
color 2
fd 4
color 4
fd 48
color 11
fd 2
color 2
fd 2
color 2
fd 4
color 2
fd 2
color 2
fd 68
color 6
fd 6
color 2
fd 2
color 6
fd 2
color 5
fd 20
setxy 0 90
color 1
fd 30
color 7
fd 50
color 6
fd 2
color 2
fd 6
color 4
fd 48
color 9
fd 2
color 2
fd 60
color 6
fd 6
color 2
fd 2
color 6
fd 2
color 5
fd 18
setxy 0 91
color 1
fd 32
color 7
fd 48
color 2
fd 14
color 11
fd 2
color 4
fd 44
color 11
fd 2
color 2
fd 56
color 6
fd 4
color 2
fd 2
color 6
fd 2
color 5
fd 18
setxy 0 92
color 1
fd 34
color 14
fd 2
color 7
fd 48
color 2
fd 14
color 4
fd 44
color 9
fd 2
color 2
fd 48
color 6
fd 4
color 2
fd 2
color 6
fd 2
color 5
fd 18
setxy 0 93
color 1
fd 38
color 7
fd 46
color 2
fd 10
color 11
fd 2
color 4
fd 42
color 2
fd 46
color 6
fd 4
color 2
fd 2
color 6
fd 2
color 5
fd 18
setxy 0 94
color 1
fd 42
color 7
fd 46
color 6
fd 2
color 2
fd 10
color 11
fd 2
color 4
fd 38
color 11
fd 2
color 2
fd 42
color 6
fd 2
color 2
fd 2
color 6
fd 2
color 5
fd 22
setxy 0 95
color 1
fd 46
color 7
fd 42
color 6
fd 2
color 2
fd 6
color 9
fd 2
color 4
fd 38
color 9
fd 2
color 2
fd 40
color 6
fd 2
color 2
fd 2
color 6
fd 2
color 5
fd 20
setxy 0 96
color 1
fd 48
color 14
fd 2
color 7
fd 38
color 2
fd 10
color 4
fd 36
color 11
fd 2
color 2
fd 38
color 6
fd 2
color 2
fd 2
color 6
fd 2
color 5
fd 20
setxy 0 97
color 1
fd 52
color 7
fd 40
color 6
fd 2
color 2
fd 16
color 9
fd 2
color 4
fd 34
color 9
fd 2
color 2
fd 40
color 6
fd 2
color 5
fd 20
setxy 0 98
color 1
fd 54
color 14
fd 2
color 7
fd 36
color 6
fd 2
color 2
fd 24
color 4
fd 34
color 2
fd 40
color 6
fd 2
color 5
fd 18
setxy 0 99
color 1
fd 58
color 7
fd 32
color 6
fd 2
color 2
fd 36
color 9
fd 2
color 4
fd 30
color 9
fd 2
color 2
fd 34
color 6
fd 6
color 5
fd 20
setxy 0 100
color 1
fd 64
color 7
fd 22
color 2
fd 52
color 4
fd 30
color 9
fd 2
color 2
fd 26
color 6
fd 10
color 2
fd 2
color 6
fd 2
color 5
fd 18
setxy 0 101
color 1
fd 68
color 7
fd 18
color 2
fd 50
color 11
fd 2
color 4
fd 30
color 9
fd 2
color 2
fd 26
color 6
fd 18
color 5
fd 18
setxy 0 102
color 1
fd 72
color 7
fd 12
color 2
fd 30
color 2
fd 22
color 11
fd 2
color 4
fd 30
color 9
fd 2
color 2
fd 28
color 6
fd 16
color 5
fd 2
color 5
fd 18
setxy 0 103
color 1
fd 76
color 7
fd 8
color 2
fd 16
color 2
fd 28
color 11
fd 2
color 4
fd 30
color 9
fd 2
color 2
fd 28
color 6
fd 18
color 5
fd 2
color 5
fd 18
setxy 0 104
color 1
fd 78
color 14
fd 2
color 7
fd 4
color 6
fd 2
color 2
fd 10
color 11
fd 2
color 4
fd 30
color 9
fd 2
color 2
fd 28
color 6
fd 14
color 2
fd 2
color 6
fd 2
color 5
fd 18
setxy 0 105
color 1
fd 82
color 2
fd 4
color 11
fd 2
color 4
fd 30
color 9
fd 2
color 2
fd 28
color 6
fd 18
color 5
fd 18
setxy 0 106
color 1
fd 80
color 2
fd 2
color 11
fd 2
color 4
fd 30
color 9
fd 2
color 2
fd 22
color 6
fd 18
color 5
fd 18
setxy 0 107
color 1
fd 78
color 2
fd 4
color 11
fd 2
color 4
fd 30
color 9
fd 2
color 2
fd 20
color 6
fd 20
color 5
fd 18
setxy 0 108
color 1
fd 74
color 8
fd 2
color 1
fd 2
color 11
fd 2
color 4
fd 30
color 9
fd 2
color 2
fd 20
color 6
fd 16
color 2
fd 2
color 6
fd 2
color 5
fd 20
setxy 0 109
color 1
fd 74
color 12
fd 2
color 10
fd 2
color 2
fd 2
color 11
fd 2
color 4
fd 30
color 9
fd 2
color 2
fd 20
color 6
fd 16
color 2
fd 2
color 6
fd 2
color 5
fd 20
setxy 0 110
color 1
fd 74
color 12
fd 2
color 11
fd 2
color 4
fd 30
color 9
fd 2
color 2
fd 20
color 6
fd 20
color 5
fd 20
setxy 0 111
color 1
fd 72
color 1
fd 2
color 11
fd 2
color 4
fd 30
color 9
fd 2
color 2
fd 22
color 6
fd 18
color 5
fd 20
setxy 0 112
color 1
fd 72
color 12
fd 2
color 1
fd 2
color 11
fd 2
color 4
fd 30
color 9
fd 2
color 2
fd 26
color 6
fd 14
color 14
fd 2
color 5
fd 18
setxy 0 113
color 1
fd 72
color 1
fd 2
color 11
fd 2
color 4
fd 30
color 9
fd 2
color 2
fd 28
color 6
fd 12
color 5
fd 20
setxy 0 114
color 1
fd 72
color 1
fd 2
color 11
fd 2
color 4
fd 30
color 9
fd 2
color 2
fd 28
color 6
fd 12
color 5
fd 20
setxy 0 115
color 1
fd 72
color 1
fd 2
color 11
fd 2
color 4
fd 30
color 9
fd 2
color 2
fd 28
color 6
fd 12
color 5
fd 20
setxy 0 116
color 1
fd 72
color 1
fd 2
color 11
fd 2
color 4
fd 30
color 9
fd 2
color 2
fd 30
color 6
fd 10
color 5
fd 20
setxy 0 117
color 1
fd 72
color 10
fd 2
color 1
fd 2
color 11
fd 2
color 4
fd 30
color 9
fd 2
color 2
fd 30
color 6
fd 10
color 5
fd 20
setxy 0 118
color 1
fd 72
color 15
fd 2
color 11
fd 2
color 4
fd 30
color 9
fd 2
color 2
fd 32
color 6
fd 8
color 5
fd 20
setxy 0 119
color 1
fd 72
color 15
fd 2
color 11
fd 2
color 4
fd 30
color 9
fd 2
color 2
fd 34
color 6
fd 6
color 5
fd 20
setxy 0 120
color 1
fd 72
color 12
fd 2
color 1
fd 2
color 2
fd 2
color 11
fd 2
color 4
fd 30
color 9
fd 2
color 2
fd 34
color 6
fd 6
color 5
fd 20
setxy 0 121
color 1
fd 72
color 12
fd 2
color 1
fd 2
color 2
fd 2
color 11
fd 2
color 4
fd 30
color 9
fd 2
color 2
fd 34
color 6
fd 6
color 5
fd 20
setxy 0 122
color 1
fd 70
color 1
fd 4
color 2
fd 4
color 11
fd 2
color 4
fd 30
color 9
fd 2
color 2
fd 34
color 6
fd 6
color 5
fd 20
setxy 0 123
color 1
fd 70
color 12
fd 2
color 1
fd 2
color 10
fd 2
color 2
fd 4
color 11
fd 2
color 4
fd 30
color 9
fd 2
color 2
fd 34
color 6
fd 6
color 5
fd 20
setxy 0 124
color 1
fd 68
color 1
fd 2
color 2
fd 6
color 9
fd 14
color 11
fd 2
color 4
fd 30
color 9
fd 2
color 2
fd 34
color 6
fd 2
color 2
fd 2
color 6
fd 2
color 5
fd 20
setxy 0 125
color 1
fd 68
color 12
fd 2
color 1
fd 2
color 10
fd 2
color 2
fd 10
color 9
fd 14
color 11
fd 2
color 4
fd 30
color 9
fd 2
color 2
fd 34
color 6
fd 2
color 2
fd 2
color 6
fd 2
color 5
fd 20
setxy 0 126
color 1
fd 68
color 10
fd 2
color 1
fd 2
color 10
fd 2
color 2
fd 10
color 9
fd 16
color 11
fd 2
color 4
fd 30
color 9
fd 2
color 2
fd 34
color 6
fd 2
color 2
fd 2
color 6
fd 2
color 5
fd 20
setxy 0 127
color 1
fd 68
color 10
fd 2
color 1
fd 2
color 2
fd 12
color 9
fd 16
color 11
fd 2
color 4
fd 30
color 9
fd 2
color 2
fd 34
color 6
fd 2
color 2
fd 2
color 6
fd 2
color 5
fd 20
setxy 0 128
color 1
fd 68
color 12
fd 2
color 1
fd 2
color 2
fd 12
color 9
fd 16
color 11
fd 2
color 4
fd 30
color 9
fd 2
color 2
fd 34
color 6
fd 2
color 2
fd 2
color 6
fd 2
color 5
fd 20
setxy 0 129
color 1
fd 68
color 8
fd 2
color 1
fd 2
color 2
fd 10
color 9
fd 18
color 11
fd 2
color 4
fd 30
color 9
fd 2
color 2
fd 32
color 6
fd 2
color 2
fd 4
color 5
fd 20
setxy 0 130
color 1
fd 66
color 10
fd 2
color 1
fd 4
color 2
fd 10
color 2
fd 2
color 9
fd 16
color 11
fd 2
color 4
fd 30
color 9
fd 2
color 2
fd 32
color 6
fd 2
color 2
fd 2
color 6
fd 2
color 5
fd 18
setxy 0 131
color 1
fd 66
color 12
fd 2
color 1
fd 4
color 2
fd 10
color 9
fd 14
color 11
fd 2
color 4
fd 30
color 9
fd 2
color 2
fd 32
color 6
fd 2
color 2
fd 2
color 6
fd 2
color 5
fd 20
setxy 0 132
color 1
fd 66
color 12
fd 2
color 1
fd 2
color 3
fd 2
color 2
fd 8
color 9
fd 12
color 11
fd 2
color 4
fd 30
color 9
fd 2
color 2
fd 36
color 14
fd 2
color 5
fd 18
setxy 0 133
color 1
fd 66
color 12
fd 2
color 1
fd 2
color 3
fd 2
color 2
fd 8
color 9
fd 10
color 11
fd 2
color 4
fd 30
color 9
fd 2
color 2
fd 30
color 6
fd 2
color 2
fd 2
color 6
fd 2
color 5
fd 20
setxy 0 134
color 1
fd 66
color 12
fd 2
color 1
fd 4
color 2
fd 8
color 9
fd 10
color 11
fd 2
color 4
fd 30
color 9
fd 2
color 2
fd 30
color 6
fd 2
color 2
fd 2
color 6
fd 2
color 5
fd 22
setxy 0 135
color 1
fd 66
color 10
fd 2
color 1
fd 4
color 2
fd 8
color 9
fd 8
color 11
fd 2
color 4
fd 30
color 9
fd 2
color 2
fd 34
color 5
fd 22
setxy 0 136
color 1
fd 68
color 8
fd 2
color 1
fd 2
color 2
fd 8
color 9
fd 4
color 11
fd 2
color 4
fd 30
color 9
fd 2
color 2
fd 32
color 6
fd 2
color 5
fd 24
setxy 0 137
color 1
fd 68
color 12
fd 2
color 1
fd 2
color 2
fd 8
color 11
fd 2
color 4
fd 30
color 9
fd 2
color 2
fd 30
color 6
fd 2
color 5
fd 24
setxy 0 138
color 1
fd 68
color 1
fd 2
color 2
fd 8
color 11
fd 2
color 4
fd 30
color 9
fd 2
color 2
fd 30
color 6
fd 2
color 5
fd 26
setxy 0 139
color 1
fd 68
color 1
fd 2
color 10
fd 2
color 2
fd 8
color 11
fd 2
color 4
fd 30
color 9
fd 2
color 2
fd 30
color 5
fd 26
setxy 0 140
color 1
fd 68
color 12
fd 2
color 1
fd 2
color 10
fd 2
color 2
fd 8
color 11
fd 2
color 4
fd 30
color 9
fd 2
color 2
fd 28
color 6
fd 2
color 5
fd 28
setxy 0 141
color 1
fd 68
color 10
fd 2
color 1
fd 4
color 2
fd 6
color 11
fd 2
color 4
fd 30
color 9
fd 2
color 2
fd 28
color 14
fd 2
color 5
fd 26
setxy 0 142
color 1
fd 70
color 10
fd 2
color 1
fd 2
color 2
fd 6
color 11
fd 2
color 4
fd 30
color 9
fd 2
color 2
fd 28
color 5
fd 28
setxy 0 143
color 1
fd 70
color 12
fd 2
color 1
fd 2
color 10
fd 2
color 2
fd 4
color 11
fd 2
color 4
fd 30
color 9
fd 2
color 2
fd 28
color 5
fd 26
setxy 0 144
color 1
fd 70
color 15
fd 2
color 1
fd 4
color 2
fd 4
color 11
fd 2
color 4
fd 30
color 9
fd 2
color 2
fd 24
color 6
fd 2
color 2
fd 2
color 5
fd 28
setxy 0 145
color 1
fd 72
color 12
fd 2
color 1
fd 2
color 2
fd 4
color 11
fd 2
color 4
fd 30
color 9
fd 2
color 2
fd 24
color 6
fd 2
color 2
fd 2
color 5
fd 28
setxy 0 146
color 1
fd 72
color 1
fd 2
color 2
fd 2
color 2
fd 2
color 11
fd 2
color 4
fd 30
color 9
fd 2
color 2
fd 22
color 6
fd 4
color 2
fd 2
color 14
fd 2
color 5
fd 26
setxy 0 147
color 1
fd 72
color 15
fd 2
color 1
fd 2
color 2
fd 2
color 11
fd 2
color 4
fd 30
color 9
fd 2
color 2
fd 22
color 6
fd 2
color 2
fd 2
color 6
fd 2
color 14
fd 2
color 5
fd 26
setxy 0 148
color 1
fd 74
color 10
fd 4
color 2
fd 2
color 2
fd 2
color 11
fd 2
color 4
fd 30
color 9
fd 2
color 2
fd 18
color 6
fd 2
color 2
fd 2
color 6
fd 2
color 2
fd 2
color 6
fd 2
color 5
fd 28
setxy 0 149
color 1
fd 74
color 15
fd 2
color 1
fd 2
color 9
fd 8
color 11
fd 2
color 4
fd 30
color 9
fd 2
color 2
fd 20
color 6
fd 4
color 2
fd 2
color 5
fd 28
setxy 0 150
color 1
fd 78
color 10
fd 2
color 9
fd 10
color 11
fd 2
color 4
fd 30
color 9
fd 2
color 2
fd 20
color 6
fd 2
color 2
fd 2
color 6
fd 2
color 5
fd 28
setxy 0 151
color 1
fd 80
color 9
fd 10
color 11
fd 2
color 4
fd 30
color 9
fd 2
color 2
fd 20
color 6
fd 2
color 2
fd 2
color 6
fd 2
color 5
fd 28
setxy 0 152
color 1
fd 76
color 12
fd 2
color 1
fd 2
color 10
fd 2
color 9
fd 10
color 11
fd 2
color 4
fd 30
color 9
fd 2
color 2
fd 20
color 6
fd 2
color 2
fd 2
color 6
fd 2
color 5
fd 28
setxy 0 153
color 1
fd 76
color 10
fd 2
color 1
fd 4
color 9
fd 12
color 11
fd 2
color 4
fd 30
color 9
fd 2
color 2
fd 18
color 6
fd 2
color 2
fd 4
color 14
fd 2
color 5
fd 26
setxy 0 154
color 1
fd 78
color 10
fd 2
color 1
fd 2
color 10
fd 2
color 9
fd 12
color 11
fd 2
color 4
fd 30
color 9
fd 2
color 2
fd 18
color 6
fd 2
color 2
fd 2
color 6
fd 2
color 5
fd 28
setxy 0 155
color 1
fd 80
color 12
fd 2
color 1
fd 2
color 12
fd 2
color 9
fd 8
color 11
fd 2
color 4
fd 30
color 9
fd 2
color 2
fd 26
color 14
fd 2
color 5
fd 28
setxy 0 156
color 1
fd 82
color 1
fd 2
color 9
fd 8
color 11
fd 2
color 4
fd 30
color 9
fd 2
color 2
fd 26
color 6
fd 2
color 5
fd 30
setxy 0 157
color 1
fd 82
color 8
fd 2
color 1
fd 4
color 9
fd 6
color 11
fd 2
color 4
fd 30
color 9
fd 2
color 2
fd 28
color 14
fd 2
color 5
fd 30
setxy 0 158
color 1
fd 84
color 10
fd 2
color 1
fd 2
color 9
fd 4
color 2
fd 6
color 11
fd 2
color 4
fd 30
color 9
fd 2
color 2
fd 28
color 14
fd 2
color 5
fd 28
setxy 0 159
color 1
fd 86
color 9
fd 4
color 2
fd 16
color 11
fd 2
color 4
fd 30
color 9
fd 2
color 2
fd 26
color 6
fd 2
color 5
fd 32
setxy 0 160
color 1
fd 86
color 1
fd 2
color 9
fd 2
color 2
fd 28
color 11
fd 2
color 4
fd 30
color 9
fd 2
color 2
fd 26
color 14
fd 2
color 5
fd 30
setxy 0 161
color 1
fd 88
color 12
fd 2
color 1
fd 2
color 10
fd 2
color 2
fd 54
color 4
fd 30
color 9
fd 2
color 2
fd 24
color 14
fd 2
color 5
fd 32
setxy 0 162
color 1
fd 90
color 10
fd 2
color 1
fd 2
color 2
fd 54
color 2
fd 2
color 4
fd 30
color 9
fd 2
color 2
fd 26
color 5
fd 34
setxy 0 163
color 1
fd 90
color 12
fd 2
color 1
fd 2
color 2
fd 56
color 2
fd 2
color 4
fd 30
color 9
fd 2
color 2
fd 2
color 2
fd 28
color 14
fd 2
color 5
fd 32
color 3
fd 26
color 8
fd 2
setxy 0 164
color 1
fd 92
color 10
fd 2
color 1
fd 4
color 2
fd 46
color 2
fd 6
color 9
fd 2
color 2
fd 26
color 6
fd 2
color 5
fd 34
color 3
fd 26
color 8
fd 2
setxy 0 165
color 1
fd 94
color 1
fd 2
color 2
fd 48
color 2
fd 2
color 2
fd 4
color 2
fd 4
color 2
fd 28
color 5
fd 34
color 3
fd 26
color 8
fd 2
setxy 0 166
color 1
fd 96
color 12
fd 2
color 1
fd 2
color 2
fd 50
color 2
fd 2
color 2
fd 28
color 3
fd 2
color 5
fd 34
color 3
fd 26
color 8
fd 2
setxy 0 167
color 1
fd 98
color 10
fd 2
color 1
fd 4
color 2
fd 54
color 2
fd 2
color 2
fd 28
color 1
fd 2
color 3
fd 2
color 5
fd 34
setxy 0 168
color 1
fd 100
color 10
fd 2
color 1
fd 4
color 2
fd 56
color 2
fd 6
color 2
fd 32
color 6
fd 2
color 8
fd 2
color 3
fd 4
color 5
fd 32
color 3
fd 26
color 8
fd 2
color 3
fd 2
setxy 0 169
color 1
fd 102
color 10
fd 2
color 1
fd 4
color 2
fd 58
color 2
fd 10
color 2
fd 38
color 1
fd 2
color 3
fd 4
color 5
fd 32
color 3
fd 26
color 8
fd 2
color 3
fd 2
setxy 0 170
color 1
fd 104
color 10
fd 2
color 1
fd 4
color 2
fd 60
color 2
fd 50
color 1
fd 2
color 3
fd 8
color 5
fd 28
color 3
fd 28
color 8
fd 2
color 3
fd 2
setxy 0 171
color 1
fd 106
color 10
fd 2
color 1
fd 2
color 2
fd 62
color 2
fd 46
color 3
fd 12
color 5
fd 28
color 3
fd 32
setxy 0 172
color 1
fd 108
color 12
fd 2
color 1
fd 2
color 2
fd 66
color 2
fd 46
color 12
fd 2
color 1
fd 2
color 3
fd 12
color 5
fd 24
color 3
fd 34
setxy 0 173
color 1
fd 110
color 10
fd 2
color 1
fd 2
color 2
fd 118
color 3
fd 20
color 5
fd 18
color 3
fd 36
setxy 0 174
color 1
fd 112
color 15
fd 2
color 10
fd 2
color 1
fd 4
color 2
fd 116
color 1
fd 2
color 8
fd 2
color 3
fd 20
color 5
fd 14
color 3
fd 38
setxy 0 175
color 1
fd 116
color 10
fd 2
color 1
fd 4
color 2
fd 114
color 3
fd 2
color 1
fd 2
color 3
fd 24
color 5
fd 8
color 3
fd 42
setxy 0 176
color 1
fd 118
color 1
fd 2
color 2
fd 114
color 12
fd 2
color 1
fd 2
color 8
fd 2
color 3
fd 68
color 8
fd 2
color 3
fd 4
setxy 0 177
color 1
fd 120
color 8
fd 2
color 1
fd 4
color 2
fd 112
color 12
fd 2
color 1
fd 2
color 8
fd 4
color 3
fd 68
color 8
fd 2
color 3
fd 2
color 1
fd 2
setxy 0 178
color 1
fd 122
color 10
fd 2
color 1
fd 4
color 2
fd 110
color 12
fd 2
color 1
fd 2
color 12
fd 2
color 3
fd 72
color 8
fd 2
color 3
fd 2
setxy 0 179
color 1
fd 128
color 1
fd 4
color 2
fd 6
color 2
fd 110
color 1
fd 2
color 12
fd 2
color 8
fd 4
color 3
fd 70
color 8
fd 2
color 3
fd 2
color 1
fd 2
color 8
fd 2
setxy 0 180
color 1
fd 130
color 12
fd 2
color 10
fd 2
color 1
fd 2
color 2
fd 4
color 2
fd 110
color 12
fd 4
color 8
fd 2
color 3
fd 74
color 8
fd 2
color 3
fd 2
color 8
fd 4
setxy 0 181
color 1
fd 132
color 1
fd 4
color 2
fd 2
color 2
fd 6
color 2
fd 108
color 1
fd 4
color 3
fd 76
color 8
fd 2
color 3
fd 4
color 8
fd 4
setxy 0 182
color 1
fd 134
color 1
fd 4
color 10
fd 2
color 2
fd 4
color 2
fd 106
color 1
fd 4
color 12
fd 2
color 3
fd 2
color 8
fd 2
color 3
fd 72
color 8
fd 2
color 3
fd 4
color 8
fd 4
setxy 0 183
color 1
fd 138
color 12
fd 2
color 15
fd 2
color 1
fd 4
color 2
fd 2
color 2
fd 4
color 2
fd 106
color 10
fd 2
color 1
fd 2
color 8
fd 2
color 12
fd 2
color 1
fd 2
color 3
fd 4
color 8
fd 2
color 3
fd 68
color 8
fd 2
color 3
fd 6
color 8
fd 4
setxy 0 184
color 1
fd 140
color 15
fd 2
color 1
fd 2
color 10
fd 2
color 2
fd 2
color 2
fd 2
color 2
fd 104
color 1
fd 2
color 12
fd 2
color 3
fd 2
color 1
fd 2
color 8
fd 2
color 3
fd 4
color 8
fd 2
color 3
fd 68
color 8
fd 2
color 3
fd 6
color 8
fd 2
setxy 0 185
color 1
fd 146
color 12
fd 2
color 10
fd 2
color 1
fd 4
color 10
fd 2
color 2
fd 8
color 2
fd 100
color 10
fd 2
color 1
fd 2
color 10
fd 2
color 1
fd 4
color 3
fd 4
color 8
fd 2
color 1
fd 2
color 3
fd 6
color 8
fd 2
color 3
fd 62
color 8
fd 2
color 3
fd 6
color 8
fd 2
color 3
fd 4
setxy 0 186
color 1
fd 152
color 12
fd 2
color 1
fd 2
color 12
fd 2
color 2
fd 10
color 2
fd 96
color 10
fd 2
color 1
fd 4
color 10
fd 2
color 1
fd 4
color 3
fd 4
color 8
fd 4
color 3
fd 6
color 8
fd 2
color 3
fd 60
color 8
fd 2
color 3
fd 6
color 8
fd 4
color 3
fd 4
setxy 0 187
color 1
fd 156
color 12
fd 2
color 1
fd 6
color 10
fd 2
color 2
fd 4
color 2
fd 96
color 1
fd 4
color 12
fd 2
color 1
fd 8
color 3
fd 6
color 8
fd 2
color 1
fd 2
color 3
fd 6
color 8
fd 2
color 3
fd 66
color 8
fd 4
color 3
fd 4
setxy 0 188
color 1
fd 158
color 10
fd 2
color 1
fd 6
color 10
fd 2
color 2
fd 4
color 2
fd 84
color 10
fd 2
color 1
fd 4
color 10
fd 2
color 1
fd 14
color 3
fd 4
color 8
fd 4
color 3
fd 64
color 8
fd 2
color 3
fd 6
color 8
fd 6
color 3
fd 2
setxy 0 189
color 1
fd 162
color 8
fd 2
color 10
fd 2
color 1
fd 6
color 10
fd 2
color 2
fd 4
color 2
fd 72
color 10
fd 2
color 1
fd 6
color 10
fd 2
color 1
fd 16
color 3
fd 4
color 8
fd 6
color 3
fd 6
color 8
fd 2
color 3
fd 52
color 8
fd 4
color 3
fd 4
color 8
fd 6
color 3
fd 4
setxy 0 190
color 1
fd 168
color 10
fd 4
color 1
fd 8
color 10
fd 2
color 2
fd 4
color 2
fd 62
color 10
fd 2
color 1
fd 6
color 12
fd 2
color 1
fd 20
color 3
fd 4
color 8
fd 4
color 1
fd 2
color 3
fd 4
color 8
fd 4
color 3
fd 48
color 8
fd 4
color 3
fd 6
color 8
fd 4
color 3
fd 4
setxy 0 191
color 1
fd 178
color 8
fd 2
color 12
fd 4
color 8
fd 2
color 1
fd 12
color 10
fd 2
color 2
fd 44
color 10
fd 2
color 1
fd 8
color 12
fd 2
color 8
fd 2
color 1
fd 30
color 3
fd 4
color 8
fd 6
color 3
fd 8
color 8
fd 4
color 3
fd 38
color 8
fd 2
color 3
fd 8
color 8
fd 6
color 3
fd 6
setxy 0 192
color 1
fd 184
color 8
fd 2
color 10
fd 4
color 8
fd 2
color 1
fd 8
color 10
fd 6
color 2
fd 10
color 10
fd 4
color 1
fd 8
color 12
fd 4
color 8
fd 2
color 1
fd 34
color 3
fd 6
color 8
fd 6
color 3
fd 8
color 8
fd 4
color 3
fd 34
color 8
fd 2
color 3
fd 10
color 8
fd 4
color 3
fd 6
setxy 0 193
color 1
fd 194
color 8
fd 2
color 10
fd 4
color 12
fd 2
color 1
fd 16
color 10
fd 12
color 12
fd 2
color 1
fd 16
color 12
fd 4
color 15
fd 2
color 1
fd 42
color 3
fd 6
color 8
fd 4
color 1
fd 2
color 3
fd 10
color 8
fd 2
color 3
fd 28
color 8
fd 4
color 3
fd 10
color 8
fd 4
color 3
fd 8
setxy 0 194
color 1
fd 204
color 10
fd 2
color 12
fd 2
color 10
fd 6
color 1
fd 22
color 12
fd 2
color 10
fd 8
color 15
fd 2
color 1
fd 50
color 3
fd 6
color 8
fd 6
color 3
fd 10
color 8
fd 8
color 3
fd 14
color 8
fd 6
color 3
fd 10
color 1
fd 2
color 8
fd 4
color 3
fd 8
setxy 0 195
color 1
fd 216
color 15
fd 2
color 10
fd 2
color 12
fd 4
color 12
fd 2
color 12
fd 4
color 10
fd 2
color 15
fd 2
color 1
fd 62
color 3
fd 8
color 8
fd 6
color 1
fd 2
color 3
fd 14
color 8
fd 14
color 3
fd 14
color 8
fd 8
color 3
fd 6
setxy 0 196
color 1
fd 302
color 3
fd 6
color 8
fd 8
color 3
fd 36
color 8
fd 8
color 3
fd 8
setxy 0 197
color 1
fd 308
color 3
fd 8
color 8
fd 12
color 1
fd 2
color 3
fd 14
color 8
fd 12
color 3
fd 10
setxy 0 198
color 1
fd 308
color 3
fd 12
color 8
fd 34
color 3
fd 10
setxy 0 199
color 1
fd 312
color 3
fd 12
color 8
fd 24
color 3
fd 12